cssgg/edit-markup.svg

<svg
  width="24"
  height="24"
  viewBox="0 0 24 24"
  fill="none"
  xmlns="http://www.w3.org/2000/svg"
>
  <path
    fill-rule="evenodd"
    clip-rule="evenodd"
    d="M12 24C18.6274 24 24 18.6274 24 12C24 5.37258 18.6274 0 12 0C5.37258 0 0 5.37258 0 12C0 18.6274 5.37258 24 12 24ZM18.5793 19.531C20.6758 17.698 22 15.0036 22 12C22 6.47715 17.5228 2 12 2C6.47715 2 2 6.47715 2 12C2 14.9616 3.28743 17.6225 5.33317 19.4535L6.99999 10.9738H9.17026L12 6.07251L14.8297 10.9738H17L18.5793 19.531ZM16.0919 21.1272L15.2056 12.9738H8.79438L7.90814 21.1272C9.15715 21.688 10.5421 22 12 22C13.4579 22 14.8428 21.688 16.0919 21.1272Z"
    fill="currentColor"
  />
</svg>

<svg viewBox="0 0 24 24" xmlns="http://www.w3.org/2000/svg"><path fill-rule="evenodd" d="M12 24c6.62 0 12-5.38 12-12 0-6.63-5.38-12-12-12C5.37 0 0 5.37 0 12c0 6.62 5.37 12 12 12Zm6.57-4.47c2.09-1.84 3.42-4.53 3.42-7.54 0-5.53-4.48-10-10-10 -5.53 0-10 4.47-10 10 0 2.96 1.28 5.62 3.33 7.45l1.66-8.48h2.17l2.82-4.91 2.82 4.9h2.17l1.57 8.55Zm-2.49 1.59l-.89-8.16H8.77l-.89 8.15c1.24.56 2.63.87 4.09.87 1.45 0 2.84-.32 4.09-.88Z"/></svg>
